X:96
T:Old Towler. JJo.096
S:J.Jones MS,1801,N.Shrops.
A:N Shropshire
Z:Neil Brookes 2006
M:6/8
L:1/8
Q:3/8=120
K:F
c|f2fd2A|G2AB2_e|d2f egb|b3a2c|!
f2fa2f|d2dg2f|e2e dcd|c3c2::!
c|g2ec2c|a2f c2c|d2dc’2a|a3g2c|!
c=Bc def|gab agf|d2gf2e|f3f2 F/A/|!
c3c3|cfzz2c|cAc cAc|cfz zef|!
g3g3|gc’zz2g|geg geg|gbz z2b|!
afzz2a|gczz2b|c’fzz2a|gczz2c|!
faa faa|f3f3|faa faa|c’2zz2c/B/A/G/|!
F2BA2d|c2ba2f|g2g ede|f3b3|!
aba gfg|c’3b3|aba gfg|f3f2:|

